svgs/thin/signal.svg

<svg xmlns="http://www.w3.org/2000/svg" viewBox="0 0 576 512"><!--! Font Awesome Pro 6.3.0 by @fontawesome - https://fontawesome.com License - https://fontawesome.com/license (Commercial License) Copyright 2023 Fonticons, Inc. --><path d="M288 192C283.6 192 280 195.6 280 200v304C280 508.4 283.6 512 288 512s8-3.594 8-8v-304C296 195.6 292.4 192 288 192zM32 384C27.59 384 24 387.6 24 392v112c0 4.406 3.594 8 7.1 8S40 508.4 40 504v-112C40 387.6 36.41 384 32 384zM160 288C155.6 288 152 291.6 152 296v208C152 508.4 155.6 512 160 512s8-3.594 8-8v-208C168 291.6 164.4 288 160 288zM416 96c-4.406 0-8 3.594-8 8v400c0 4.406 3.594 8 8 8s8-3.594 8-8V104C424 99.59 420.4 96 416 96zM544 0c-4.406 0-8 3.594-8 8v496c0 4.406 3.594 8 8 8s8-3.594 8-8V8C552 3.594 548.4 0 544 0z"/></svg>

<svg xmlns="http://www.w3.org/2000/svg" viewBox="0 0 576 512"><!-- Font Awesome Pro 6.0.0-alpha2 by @fontawesome - https://fontawesome.com License - https://fontawesome.com/license (Commercial License) --><path d="M288 192C283.594 192 280 195.594 280 200V504C280 508.406 283.594 512 288 512S296 508.406 296 504V200C296 195.594 292.406 192 288 192ZM32 384C27.594 384 24 387.594 24 392V504C24 508.406 27.594 512 32 512S40 508.406 40 504V392C40 387.594 36.406 384 32 384ZM160 288C155.594 288 152 291.594 152 296V504C152 508.406 155.594 512 160 512S168 508.406 168 504V296C168 291.594 164.406 288 160 288ZM416 96C411.594 96 408 99.594 408 104V504C408 508.406 411.594 512 416 512S424 508.406 424 504V104C424 99.594 420.406 96 416 96ZM544 0C539.594 0 536 3.594 536 8V504C536 508.406 539.594 512 544 512S552 508.406 552 504V8C552 3.594 548.406 0 544 0Z"/></svg>
